material/.icons/material/arrow-left-bold-box.svg

<svg xmlns="http://www.w3.org/2000/svg" viewBox="0 0 24 24"><path d="M21 5v14a2 2 0 01-2 2H5a2 2 0 01-2-2V5a2 2 0 012-2h14a2 2 0 012 2M7 12l5 5v-3h4v-4h-4V7l-5 5z"/></svg>

<?xml version="1.0" encoding="UTF-8"?><!DOCTYPE svg PUBLIC "-//W3C//DTD SVG 1.1//EN" "http://www.w3.org/Graphics/SVG/1.1/DTD/svg11.dtd"><svg xmlns="http://www.w3.org/2000/svg" xmlns:xlink="http://www.w3.org/1999/xlink" version="1.1" id="mdi-arrow-left-bold-box" width="24" height="24" viewBox="0 0 24 24"><path d="M21,5V19A2,2 0 0,1 19,21H5A2,2 0 0,1 3,19V5A2,2 0 0,1 5,3H19A2,2 0 0,1 21,5M7,12L12,17V14H16V10H12V7L7,12Z" /></svg>
